X:490
%%etbk:tnset id:214,pos:1,rep:3x,ant:
%%etbk:pldat 2015-01-18T11:27,2014-11-22T15:15,2014-11-19T16:59,2014-05-02T16:42,2014-05-01T19:00,2014-04-30T15:25,2014-04-28T18:36,2014-03-25T15:56,2014-03-18T17:35,2014-03-14T18:40,2013-11-21T18:57,2013-11-16T15:00,2013-11-12T18:32,2013-11-09T15:18,2013-11-07T16:02,2013-10-04T17:03,2013-09-30T18:51,2013-09-29T14:14,2013-09-27T14:16,2013-09-26T15:15
T:Glenside Cottage, The
Z: Piano Box Version by Martin Fleischmann
H: Created 2013-09-16 /  Last Modified 2013-09-27
R:reel
M:4/4
K:Edor
|:"em"!5!B2AF !1!DE!3!F!4!A|!2!B2A!3!d "bm"!2!B!3!de!5!f | "em"!3!d!2!B!1!A!3!F !1!DEF!4!A|1 "bm"!5!BDAF "em"FEEA:|2 "bm"!5!B2A!2!F "em"F!1!EE!4!A||
"em"!2!B!5!ee!1!A !2!B!4!ddA| !2!B!4!d!2!e!3!f !4!gfe!1!d|!2!B!4!ee!3!d !2!B!3!de!5!f| "bm"!3!dB!1!A!2!F "em"F!1!EEA|
"em"!2!B!5!ee!1!A !2!B!4!ddA | !2!(3Bc!4!d !2!ef !4!g2!3!ga | !5!bg!4!a!2!f !4!gfe!1!d | "bm"!2!B!4!d!1!A!2!F "em"F!1!EEA||


